X:1
T:Come, Oh Come, with Thy Broken Heart
T:Come, Oh Come, with Thy Broken Heart
T:Ira David Sankey
T:Frances Jane (Fanny) Crosby, 1875
T:Public Domain Courtesy of the Cyber Hymnal™
C:Ira David Sankey
Z:Public Domain
Z:Courtesy of the Cyber Hymnal™
%%score ( 1 2 ) ( 3 4 )
L:1/8
Q:1/4=110
M:4/4
K:G
V:1 treble 
V:2 treble 
V:3 bass 
V:4 bass 
V:1
 [B,D]2 [DB]2 [DB]2 [DA]>[DG] | [EG]2 E2 [EG]4 | [DF]2 [DF]>[DG] [DA]2 [Dc]2 | [DB]6 z2 | %4
w: 1.~Come, oh come, with thy|brok- en heart,|Wear- y and worn with|care;|
w: 2.~Firm- ly cling to the|bless- èd cross,|There shall thy ref- uge|be;|
w: 3.~Come and taste of the|pre- cious feast,|Feast of e- ter- nal|love;|
 [B,D]2 [DB]2 [DB]2 [DA]>[DG] | [CE]2 [Ec]2 c4 | [Gd]2 G>[GA] [GB]2 [FA]2 | [DG]6 z2 | %8
w: Come and kneel at the|o- pen door,|Je- sus is wait- ing|there;|
w: Wash thee now in the|crim- son fount,|Flow- ing so pure for|thee;|
w: Think of joys that for-|ev- er bloom,|Bright in the life a-|bove:|
 [EG]2 [Ec]>[Ec] [Ec]2 [Cc]2 | [B,D]2 [DB]2 [GB]4 | [GA]2 [GA][GA] [GB]2 [G^c]2 | ([Fd]4 c4) | %12
w: Wait- ing to heal thy|wound- ed soul,|Wait- ing to give thee|rest; *|
w: List to the gen- tle|warn- ing voice!|List to the ear- nest|call! *|
w: Come with a trust- ing|heart to God,|Come and be saved by|grace; *|
 [GB]2 [GB]>[GB] [Gc]2 [GB]2 | [EA]2 [EB]2 [Ec]4 | G2 G>G [GB]2 [FA]2 | [DG]6 z2 |] %16
w: Why wilt thou walk where|sha- dows fall?|Come to His lov- ing|breast!|
w: Leave at the cross thy|bur- den now:|Je- sus will bear it|all.|
w: Come, for He longs to|clasp thee now,|Close in His dear em-|brace.|
V:2
 x8 | x2 E2 x4 | x8 | x8 | x8 | x4 (E2 F2) | x2 G3/2 x9/2 | x8 | x8 | x8 | x8 | x4 (G2 A2) | x8 | %13
 x8 | G2 G>G x4 | x8 |] %16
V:3
 G,2 G,2 [G,,G,]2 [A,,F,]>[B,,G,] | [C,G,]2 [C,G,]2 [C,C]4 | [D,A,]2 [D,A,]>[D,B,] [D,C]2 [D,F,]2 | %3
 [G,,G,]6 z2 | G,2 G,2 [G,,G,]2 [A,,F,]>[B,,G,] | [C,G,]2 [C,G,]2 (G,2 A,2) | %6
 [B,,B,]2 [E,B,]>[C,E] [D,D]2 [D,C]2 | [G,,B,]6 z2 | [C,C]2 [C,G,]>[C,G,] [C,G,]2 ([E,G,][F,A,]) | %9
 [G,B,]2 [G,,G,]2 [G,,D]4 | [A,,^C]2 [A,,C][A,,C] [A,,D]2 [A,,A,]2 | ([D,A,]4 D4) | %12
 [G,D]2 [G,D]>[G,D] [G,E]2 [G,D]2 | (CA,) [B,,^G,]2 [A,,A,]4 | [E,B,]2 [B,,D]>[C,E] [D,D]2 [D,C]2 | %15
 [G,,B,]6 z2 |] %16
V:4
 G,2 G,2 x4 | x8 | x8 | x8 | G,2 G,2 x4 | x4 C,4 | x8 | x8 | x8 | x8 | x8 | x4 (E,2 F,2) | x8 | %13
 C,2 x6 | x8 | x8 |] %16

